dist/svg/lifebuoy.svg

<!-- Generated by Trend Micro Style Portal -->
<svg version="1.1" xmlns="http://www.w3.org/2000/svg" width="16" height="16" viewBox="0 0 16 16">
  <title>lifebuoy</title>
  <path fill="rgb(34,34,34)" d="M8.005 0c-4.418 0-8 3.582-8 8s3.582 8 8 8c4.418 0 8-3.582 8-8v0c0-4.418-3.582-8-8-8v0zM14.484 5.359l-2.81 1.054c-0.412-0.933-1.142-1.664-2.049-2.068l-0.026-0.010 1.054-2.811c1.743 0.731 3.101 2.091 3.813 3.789l0.017 0.046zM8.005 11c-1.657 0-3-1.343-3-3s1.343-3 3-3c1.657 0 3 1.343 3 3v0c-0.002 1.656-1.344 2.998-3 3h-0zM5.356 1.524l1.054 2.811c-0.946 0.419-1.684 1.164-2.083 2.090l-0.010 0.026-2.805-1.052c0.723-1.763 2.089-3.138 3.798-3.857l0.046-0.017zM1.512 10.601l2.805-1.052c0.41 0.954 1.151 1.701 2.074 2.109l0.026 0.010-1.054 2.81c-1.759-0.736-3.127-2.112-3.834-3.83l-0.017-0.047zM10.647 14.478l-1.054-2.81c0.936-0.414 1.668-1.146 2.071-2.056l0.010-0.026 2.81 1.054c-0.729 1.747-2.090 3.108-3.79 3.821l-0.046 0.017z"></path>
</svg>

<svg width="16" height="16" viewBox="0 0 16 16" fill="rgb(34, 34, 34)" xmlns="http://www.w3.org/2000/svg"><title>lifebuoy</title><path d="M8.005 0C3.587 0 0.00500488 3.582 0.00500488 8C0.00500488 12.418 3.587 16 8.005 16C12.423 16 16.005 12.418 16.005 8C16.005 3.582 12.423 0 8.005 0ZM14.484 5.359L11.674 6.413C11.262 5.48 10.532 4.749 9.625 4.345L9.599 4.335L10.653 1.524C12.396 2.255 13.754 3.615 14.466 5.313L14.483 5.359H14.484ZM8.005 11C6.348 11 5.005 9.657 5.005 8C5.005 6.343 6.348 5 8.005 5C9.662 5 11.005 6.343 11.005 8C11.003 9.656 9.66101 10.998 8.005 11ZM5.356 1.524L6.41 4.335C5.464 4.754 4.72601 5.499 4.327 6.425L4.317 6.451L1.512 5.399C2.235 3.636 3.601 2.261 5.31 1.542L5.356 1.524ZM1.512 10.601L4.317 9.549C4.727 10.503 5.468 11.25 6.391 11.658L6.417 11.668L5.363 14.478C3.604 13.742 2.236 12.366 1.529 10.648L1.512 10.601ZM10.647 14.478L9.59301 11.668C10.529 11.254 11.261 10.522 11.664 9.612L11.674 9.586L14.484 10.64C13.755 12.387 12.394 13.748 10.694 14.461L10.647 14.478Z" fill="rgb(34, 34, 34)" fill-opacity="1.00"/></svg>
